images/dist/sidebar-left-bw.svg

<svg width="302" height="1080" fill="none" xmlns="http://www.w3.org/2000/svg"><path fill="#fff" d="M-1306-1354H614v5000h-1920z"/><g opacity=".25"><path opacity=".6" d="M300 313 155 458m0 0V313m0 145h145m0 467L155 780m0 0v145m0-145h145M0 614.001l145-145m0 0H0m145 0v145" stroke="#697095" stroke-width="3"/><path d="M299 468a146.014 146.014 0 0 1-42.762 103.238A146.006 146.006 0 0 1 153 614V468h146Z" fill="#D4DAEA"/><path opacity=".6" d="m154.986 1 145 145.001m0 0v-145m0 145h-145" stroke="#697095" stroke-width="3"/><path d="M146 146A146.001 146.001 0 0 1 0 0h146v146Z" fill="#D4DAEA" style="mix-blend-mode:multiply"/><path d="M146 156a146.014 146.014 0 0 1-42.762 103.238A146.007 146.007 0 0 1 0 302V156h146Zm154 146a145.992 145.992 0 0 1-146-146h146v146ZM0 312a146.003 146.003 0 0 1 103.238 42.762A145.992 145.992 0 0 1 146 458H0V312Zm154 622a146.014 146.014 0 0 1 103.238 42.762 145.948 145.948 0 0 1 31.648 47.368A145.974 145.974 0 0 1 300 1080H154V934Zm-8-9a146.005 146.005 0 0 1-134.886-90.128A146.002 146.002 0 0 1 0 779h146v146ZM0 771a146.002 146.002 0 0 1 146-146v146H0Zm0 309c0-19.17 3.776-38.16 11.114-55.87A146.001 146.001 0 0 1 146 934v146H0Z" fill="#D4DAEA"/></g></svg>

<svg width="302" height="1080" viewBox="0 0 302 1080" fill="none" xmlns="http://www.w3.org/2000/svg">
<g clip-path="url(#clip0_1005_2101)">
<g opacity="0.25">
<path opacity="0.6" d="M300 313L155 458M155 458V313M155 458H300M300 925L155 780M155 780V925M155 780H300M0 614.001L145 469.001M145 469.001H0M145 469.001V614.001" stroke="#697095" stroke-width="3"/>
<path d="M299 468C298.999 506.721 283.617 543.857 256.238 571.238C228.857 598.618 191.722 614 153 614V468H299Z" fill="#D4DAEA"/>
<path opacity="0.6" d="M154.986 1L299.986 146.001M299.986 146.001V1.001M299.986 146.001H154.986" stroke="#697095" stroke-width="3"/>
<g style="mix-blend-mode:multiply">
<path d="M146 146C107.278 146 70.143 130.618 42.7627 103.237C15.3825 75.857 0.000265213 38.7215 0 0L146 0V146Z" fill="#D4DAEA"/>
</g>
<path d="M146 156C145.999 194.721 130.617 231.857 103.238 259.238C75.8571 286.618 38.7215 301.999 0 302L0 156H146ZM300 302C280.827 302.001 261.841 298.225 244.127 290.889C226.413 283.552 210.318 272.797 196.76 259.24C183.203 245.682 172.448 229.587 165.111 211.873C157.775 194.159 153.999 175.173 154 156H300V302ZM0 312C38.7216 312 75.8573 327.382 103.238 354.762C116.796 368.319 127.55 384.414 134.887 402.128C142.224 419.841 146.001 438.827 146 458H0V312ZM154 934C192.721 934.001 229.857 949.383 257.238 976.762C270.796 990.319 281.55 1006.42 288.886 1024.13C296.224 1041.84 300 1060.83 300 1080H154V934ZM146 925C117.124 924.999 88.897 916.436 64.8876 900.394C40.8782 884.351 22.165 861.55 11.114 834.872C3.77669 817.158 0.000154039 798.173 0 779H146V925ZM0 771C0.00053042 732.279 15.3828 695.143 42.763 667.763C70.1432 640.383 107.279 625.001 146 625V771H0ZM0 1080C0 1060.83 3.776 1041.84 11.114 1024.13C22.1642 997.452 40.8772 974.649 64.8867 958.606C88.8962 942.563 117.124 934 146 934V1080H0Z" fill="#D4DAEA"/>
</g>
</g>
<defs>
<clipPath id="clip0_1005_2101">
<rect width="302" height="1080" fill="white"/>
</clipPath>
</defs>
</svg>
